X: 46
T:Merch Megan
T:Margaret's Daughter
M:3/4
L:1/8
Q:200
C:Trad
S:51 Welsh Airs
R:Waltz
A:Wales
N:This version of the tune seems to be a harmonic accompaniment to the
N:version normally played.  BM.
H:From a facsimile c.1840: A Choice Collection of Fifty-One Welsh Airs
H:adapted for The Harp, Piano-Forte, Harpsichord,
H:Violin, or Flute by Edward Jones
H:"Harper to His Late Majesty King George IV, when
H:Prince of Wales".
Z:brian_martin12345@yahoo.com
K:F
"Amoroso"
(AB)|(cA)(Fc) (AF)|B2(dB)(cA)|G2(BG)(AF)|cGEcGE|
cAFcAF|B2dcBA|B2A2G2|F4:||!
(3cde|f2f>gf>g|e2e>fe>f|d2defd|eccdec|f2fgaf|e2efge|d2defd|!
{cd}c4B2|(cA)(Fc)(AF)|B2dBfA|G2BGAF|GECGEC|cAFcAF|B2dcBA|BGAFGE|F4:||

